X: 1469
T: George Barlow's Schottische
B: australian traditional tunes wiki
M:4/4
L:1/8
R: Schottische
Q: 1/4=100
K:G
V:1 
|:"G"D2E2D2E2|D2E>F G>AB2|"D7"A2B2A>G E>G|A2B2A>GE2|
"G"D2E2D2C2|D2E2D3E|"D7"D2D2E2F2|1"G FINE"G6E2:|2"G"G4-Gz/G/ A>c||
"D7"d2c>BA2G2|F>G A>BA2G2|F>G A>BA2G2|"C"E6D2|
E>D E>FA2G2|"G"B>A G>ED4|G>F G>A B>A G>A|B>"D.C. al Fine"A B>cd4||
% abcbook-tune_id 6342d53a61667cf462df8ddf


% abcbook-boost 0
% abcbook-tablature 
% abcbook-transpose 
% abcbook-lastupdated 1665324366650
% abcbook-soundfonts 
% abcbook-repeats 1
% NFF Book 2019
% Bush Traditions recording played by Ingrid Wangel

